!!!SOCIAL_FUNCTION:	songs connected with legends
!!!PDT:	1929
!!!OTL: No_37_Song_on_the_Mountain_Top.krn
!!!REG: Southwest
!!!LANG: Non-Tone
!!!LING_GROUP: Uto-Aztecan
**kern
*staff1
*clefF4
*k[]
*M2/4
8c\
=1
4.c\
8A\
=2
4.A\
8c\
=3
8.c\L
16A\Jk
8.c\L
16A\Jk
=4||
*M3/4
4A\
4.G\
8c\
=5!|:
8.c\L
16A\Jk
4.G\
8A\
=6||
*M2/4
16A\LK
8.G\J
8.G\L
16G\Jk
=7
2G\
=8||
*M3/4
8.G\L
16A\Jk
8G\L
8E\J
4G\
=9||
*M2/4
8.G\L
16E\Jk
8.A\L
16G\Jk
=10
2G\
=11
8.E\L
16A\Jk
8.A\L
16A\Jk
=12
16A\LK
8.G\J
8.G\L
16A\Jk
=13||
*M3/4
4G\
4.G\
8c\
==:|!
*-
